src/icons/icons_set_stations/005-station-luge.svg

<svg viewBox="0 0 200 200" xmlns="http://www.w3.org/2000/svg"><g fill="#000100"><path d="m156.21 144.11a3.78 3.78 0 0 0 -4.91-2c-9.29 3.91-16.13 4-22.85.19-1.13-.63-3.58-2.06-6.92-4l7.31-5.21q2.25 1.35 4.23 2.49a3.55 3.55 0 0 0 1.89.52 3.74 3.74 0 0 0 1.9-7c-2.24-1.31-4.78-2.82-7.52-4.45a5.78 5.78 0 0 0 .43-2.15v-22.35a5.64 5.64 0 0 0 -5.63-5.62h-13.6l5.92-5.07a12.18 12.18 0 0 0 -15.85-18.51l-16.77 14.36a12.16 12.16 0 0 0 -4.22 9.69l-12.7-7.56a3.74 3.74 0 1 0 -3.85 6.43c.12.06 2.2 1.31 5.61 3.35l-7.32 5.23-12.18-7.22a3.75 3.75 0 0 0 -3.86 6.43c2.93 1.76 71.45 42.67 79.45 47.16a27.82 27.82 0 0 0 13.9 3.77 40.41 40.41 0 0 0 15.53-3.59 3.77 3.77 0 0 0 2.01-4.89zm-37.69-25.88c-6.76-4-14-8.34-20.92-12.45h20.92zm-42.78-16.76c12.33 7.35 31.36 18.69 46 27.39l-7.31 5.22c-12.95-7.65-31.89-18.94-46.07-27.39z"/><path d="m133.67 72.69a12.63 12.63 0 1 0 -12.67-12.63 12.63 12.63 0 0 0 12.67 12.63z"/></g></svg>

<svg id="Icons" xmlns="http://www.w3.org/2000/svg" viewBox="0 0 200 200"><defs><style>.cls-1{fill:#000100;}</style></defs><title>luge</title><path class="cls-1" d="M156.21,144.11a3.78,3.78,0,0,0-4.91-2c-9.29,3.91-16.13,4-22.85.19-1.13-.63-3.58-2.06-6.92-4l7.31-5.21q2.25,1.35,4.23,2.49a3.55,3.55,0,0,0,1.89.52,3.74,3.74,0,0,0,1.9-7c-2.24-1.31-4.78-2.82-7.52-4.45a5.78,5.78,0,0,0,.43-2.15V100.15a5.64,5.64,0,0,0-5.63-5.62h-13.6l5.92-5.07a12.18,12.18,0,0,0-15.85-18.51L83.84,85.31A12.16,12.16,0,0,0,79.62,95l-12.7-7.56a3.74,3.74,0,1,0-3.85,6.43c.12.06,2.2,1.31,5.61,3.35l-7.32,5.23L49.18,95.23a3.75,3.75,0,0,0-3.86,6.43c2.93,1.76,71.45,42.67,79.45,47.16a27.82,27.82,0,0,0,13.9,3.77A40.41,40.41,0,0,0,154.2,149,3.77,3.77,0,0,0,156.21,144.11Zm-37.69-25.88c-6.76-4-14-8.34-20.92-12.45h20.92ZM75.74,101.47c12.33,7.35,31.36,18.69,46,27.39l-7.31,5.22c-12.95-7.65-31.89-18.94-46.07-27.39Z"/><path class="cls-1" d="M133.67,72.69A12.63,12.63,0,1,0,121,60.06,12.63,12.63,0,0,0,133.67,72.69Z"/></svg>
